!!!CDT:
!!!PTL: Madrigali a cinque voci. Libro quarto
!!!PPP: Venice
!!!PPR: Amadino
!!!PDT: 1600
!!!PUB-format:
!!!RISM: I 8
!!!rime: 571
!!!AGN: Madrigal
!!!SCT: Trm0571c
!!!SCA: Trm0571c
!!!original-voices: 5
!!!extant-voices: 2
!!!complete: N
!!!final: F
!!!COM: Il Verso, Antonio
!!!OTL: Se da sì nobil mano
**kern	**text	**kern	**text
*part2	*part2	*part1	*part1
*staff2	*staff2	*staff1	*staff1
*I"Basso	*	*I"Canto	*
*I'B	*	*I'C	*
*oclefF3	*	*oclefG2	*
*clefF4	*	*clefG2	*
*k[b-]	*	*k[b-]	*
*d:	*	*d:	*
*omet(C)	*	*omet(C)	*
*M4/4	*	*M4/4	*
*met(c)	*	*met(c)	*
!!LO:TX:a:t=Prima parte.
0r	.	2cc	Se
.	.	1cc	da
.	.	2dd	sì
=1	=1	=1	=1
0r	.	4dd	no-
.	.	4cc	-bil
.	.	2cc	ma-
.	.	2cc	-no
.	.	2r	.
=2	=2	=2	=2
0r	.	0r	.
=3	=3	=3	=3
0r	.	0r	.
=4	=4	=4	=4
1r	.	4r	.
.	.	4.a	Deb-
.	.	8a	-bon
.	.	4b-y	ve-
4r	.	4cc	-nir,
4.F	Deb-	4.ff	Deb-
8F	-bon	8ff	-bon
4G	ve-	4dd	ve-
=5	=5	=5	=5
4A	-nir	4cc	-nir
4F	le	4cc	le
4F	fa-	4.dd	fa-
4G	-sce a	.	.
.	.	8dd	-sce a
2.A	le	4cc	le
.	.	4cc	mie
.	.	[2cc	pia-
4F	mie	.	.
=6	=6	=6	=6
2c	pia-	2cc]	.
2F	-ghe,	2cc	-ghe,
4r	.	1r	.
4c	A-	.	.
4A	-mor,	.	.
4d	ché	.	.
=7	=7	=7	=7
4B-y	non	1r	.
4c	m'im-	.	.
2d	-pia-	.	.
2c	-ghe,	4r	.
.	.	4cc	A-
2r	.	4b-y	-mor,
.	.	4g	ché
=8	=8	=8	=8
4r	.	8aL	non
.	.	8fJ	.
4G	A-	2b-y	.
4E	-mor,	.	.
4F	ché	4a	m'im-
4G	non	8b-yL	-pia-
.	.	8ccJ	.
4D	m'im-	4.dd	.
4.E	-pia-	.	.
.	.	8cc	.
.	.	[4cc	.
8F	.	.	.
=9	=9	=9	=9
2G	.	8cc]L	.
.	.	16bnX	.
.	.	16aJ	.
.	.	4bnX	.
2C	-ghe	2cc	-ghe
4r	.	1r	.
4A	Il	.	.
8B-y	sen	.	.
8A	con	.	.
8d	mil-	.	.
8B-y	-le	.	.
=10	=10	=10	=10
2c	col-	2r	.
2F	-pi,	2cc	Il
1r	.	2cc	sen,
.	.	4r	.
.	.	4dd	Il
=11	=11	=11	=11
4r	.	4.ee	sen
4A	Il	.	.
.	.	8cc	con
4.B-y	sen	8dd	mil-
.	.	8ee	-le
.	.	4.ff	col-
8F	con	.	.
8c	mil-	.	.
8A	-le	8ee	.
4c	col-	8eeL	.
.	.	16dd	.
.	.	16eeJ	.
2F	-pi?	2ff	.
=12	=12	=12	=12
1r	.	1cc	-pi?
2r	.	4r	.
.	.	2ff	Né
4r	.	.	.
[4c	Né	[4ee	fia
=13	=13	=13	=13
4c]	.	4ee]	.
2B-y	fia	2dd	ch'io
4A	ch'io	2cc	te
4F#X	te	.	.
4G	n'in-	4bnX	n'in-
2A	-col-	2cc#X	-col-
=14	=14	=14	=14
2D	-pi,	2dd	-pi,
2r	.	2r	.
2r	.	1r	.
4r	.	.	.
4FnXi	Per-	.	.
=15	=15	=15	=15
2c	-ché	4r	.
.	.	4ee	Per-
2r	.	4ee	-ché
.	.	4.ff	nul-
1r	.	.	.
.	.	8ff	-la
.	.	4ee	fe-
.	.	2dd	-ri-
=16	=16	=16	=16
2r	.	2cc#X	-ta
2A	Sa-	2cc#X	Sa-
2F#X	-reb-	2dd	-reb-
2G	-be al	2bnX	-be al
=17	=17	=17	=17
2A	cor	2cc#X	cor
2D	sì	1dd	sì
2.E	gra-	.	.
.	.	[2ccnXi	gra-
4FnXi	.	.	.
=18	=18	=18	=18
1G	.	4cc]	.
.	.	8bnXL	.
.	.	8aJ	.
.	.	2bnX	.
2C	-ve,	2cc	-ve,
2r	.	[2cc	Co-
=19	=19	=19	=19
0r	.	4cc]	.
.	.	4cc	-me
.	.	2cc	fo-
.	.	4a	-ra
.	.	4cc	so-
.	.	[2cc	-a-
=20	=20	=20	=20
1r	.	2cc]	.
.	.	2cc	-ve,
2.F	Co-	2.a	Co-
4F	-me	4a	-me
=21	=21	=21	=21
2G	fo-	2b-y	fo-
4F	-ra	4cc	-ra
4D	so-	4dd	so-
2C	-a-	2g	-a-
2C	-ve	2g	-ve
=22	=22	=22	=22
0r	.	4r	.
.	.	4.cc	De
.	.	8b-y	la
.	.	4a	man
.	.	8gL	bel-
.	.	8aJ	.
.	.	8b-yL	.
.	.	8gJ	.
.	.	8aL	.
.	.	8b-yJ	.
.	.	[4cc	.
=23	=23	=23	=23
4r	.	4cc]	.
4.F	De	4a	-la,
.	.	2r	.
8E	la	.	.
4D	man	.	.
4C	bel-	2r	.
4C	-la	.	.
8DL	cor-	4r	.
8EJ	.	.	.
[4F	-te-	[4aa	De
=24	=24	=24	=24
4F]	.	4aa]	.
4E	-se a-	4gg	la
2D	-i-	2ff	man
2C	-ta,	8ee	bel-
.	.	8dd	-la
.	.	8ee	la
.	.	8ff	cor-
2r	.	4gg	-te-
.	.	4ff	-se a-
=25	=25	=25	=25
1r	.	4ee	-i-
.	.	4.ff	.
.	.	16eeL	.
.	.	16ddJ	.
.	.	4ee	.
4r	.	4ff	-ta,
4.F	De	4.cc	De
8E	la	8cc	la
4D	man	4dd	man
=26	=26	=26	=26
4C	bel-	4ee	bel-
4F	-la	4ff	-la
4.D	la	4r	.
.	.	2a	la
8E	cor-	.	.
8FL	-te-	.	.
8GJ	.	.	.
8AL	.	4cc	cor-
8B-yJ	.	.	.
4c	.	2cc	-te-
4C	-se a-	.	.
=27	=27	=27	=27
8CL	-i-	4cc	-se a-
8DJ	.	.	.
8EL	.	2cc	-i-
8FJ	.	.	.
2G	.	.	.
.	.	4bnX	.
1Cl	-ta.	1ccl	-ta.
=28||	=28||	=28||	=28||
!!LO:TX:a:t=Seconda parte.
0r	.	1f	A-
.	.	1cc	-mor,
=29	=29	=29	=29
1r	.	4r	.
.	.	4cc	pa-
.	.	4dd	-ce
.	.	4ee	non
2r	.	2ff	che-
2F	A-	[2cc	-ro,
=30	=30	=30	=30
1c	-mor,	2cc]	.
.	.	2r	.
4r	.	1r	.
4C	pa-	.	.
4D	-ce	.	.
4E	non	.	.
=31	=31	=31	=31
2F	che-	1r	.
2BB-y	-ro,	.	.
2r	.	2cc	A-
[2F	A-	[2ff	-mor,
=32	=32	=32	=32
2F]	.	4ff]	.
.	.	4cc	pa-
2.B-y	-mor,	4dd	-ce
.	.	4ee	non
.	.	2ff	che-
4F	pa-	.	.
4G	-ce	2ee	-ro,
4A	non	.	.
=33	=33	=33	=33
2B-y	che-	0r	.
2A	-ro,	.	.
2F	Non	.	.
4c	chieg-	.	.
4A	-gio u-	.	.
=34	=34	=34	=34
4B-y	-sber-	2r	.
4c	-go o	.	.
2d	scu-	4r	.
.	.	4f	Non
2c	-do,	4cc	chieg-
.	.	4a	-gio u-
2r	.	4b-y	-sber-
.	.	4cc	-go o
=35	=35	=35	=35
0r	.	2dd	scu-
.	.	1cc	-do,
.	.	2r	.
=36	=36	=36	=36
2r	.	0r	.
4r	.	.	.
4F	Ma	.	.
4.G	con-	.	.
8G	-tr'il	.	.
4A	pet-	.	.
[4BnX	-t'i-	.	.
=37	=37	=37	=37
4B]	.	1r	.
4.c	-gnu-	.	.
16BnXL	.	.	.
16AJ	.	.	.
4BnX	.	.	.
2c	-do,	4r	.
.	.	4cc	Non
2r	.	4.a	chieg-
.	.	8b-y	-gio u-
=38	=38	=38	=38
0r	.	8ccL	-sber-
.	.	8ddJ	.
.	.	2cc	.
.	.	4bnX	-go o
.	.	2cc	scu-
.	.	4cc	-do,
.	.	4cc	o
=39	=39	=39	=39
1r	.	8ddL	scu-
.	.	16cc	.
.	.	16b-iJ	.
.	.	8aL	.
.	.	8b-yJ	.
.	.	1cc	.
4r	.	.	.
4F	Non	.	.
4E	chieg-	2cc	-do,
4F	-gio u-	.	.
=40	=40	=40	=40
8DL	-sber-	4r	.
8EJ	.	.	.
8FL	.	4cc	Non
8GJ	.	.	.
8AL	.	2cc	chieg-
8B-yJ	.	.	.
2c	.	.	.
.	.	2dd	-gio u-
4BnX	-go o	.	.
4.c	scu-	2cc	-sber-
16B-iL	.	.	.
16AJ	.	.	.
=41	=41	=41	=41
4G	.	4b-y	-go o
4A	.	4.cc	scu-
2G	.	.	.
.	.	16bnXL	.
.	.	16aJ	.
.	.	4bnX	.
2C	-do,	1cc	-do,
2r	.	.	.
=42	=42	=42	=42
0r	.	0r	.
=43	=43	=43	=43
2r	.	0r	.
2F	S'el-	.	.
4D	-la	.	.
4.G	Me-	.	.
8G	-di-	.	.
4E	-ca	.	.
=44	=44	=44	=44
2F	fia,	2a	S'el-
4r	.	4f	-la
4G	fia	4.b-y	Me-
4G	tu	.	.
.	.	8b-y	-di-
4C	Guer-	4g	-ca
8FL	-re-	2a	fia,
8GJ	.	.	.
8AL	.	.	.
8B-yJ	.	.	.
=45	=45	=45	=45
2c	.	4g	fia
.	.	2cc	tu
2F	-ro,	.	.
.	.	4cc	Guer-
1r	.	2ff	-re-
.	.	4ee	-ro,
.	.	4ee	Guer-
=46	=46	=46	=46
2r	.	4.gg	-re-
.	.	8ff	.
2c	S'el-	8eeL	.
.	.	8ddJ	.
.	.	2cc	.
4A	-la	.	.
4.d	Me-	4a	-ro,
.	.	2r	.
8d	-di-	.	.
4B-y	-ca	.	.
=47	=47	=47	=47
2c	fia,	2r	.
2F	fia	4r	.
.	.	4cc	fia
4B-y	tu	4dd	tu
4c	Guer-	4ee	Guer-
2F	-re-	2ff	-re-
=48	=48	=48	=48
2F	-ro,	1cc	-ro,
2r	.	.	.
1r	.	1r	.
=49	=49	=49	=49
2r	.	2r	.
4r	.	2.cc	S'el-
2F	S'el-	.	.
4D	-la	4ff	-la
4G	Me-	4dd	Me-
8G	-di-	8dd	-di-
8G	-ca	8dd	-ca
=50	=50	=50	=50
4E	fia,	4ee	fia,
4F	fia	4cc	fia
4BB-y	tu	4dd	tu
4BB-y	Guer-	4dd	Guer-
1C	-re-	1cc	-re-
=51	=51	=51	=51
4F	-ro,	1cc	-ro,
4F	Non	.	.
4E	chieg-	.	.
4F	-gio u-	.	.
8DL	-sber-	4r	.
8EJ	.	.	.
8FL	.	4cc	Non
8GJ	.	.	.
8AL	.	2cc	chieg-
8B-yJ	.	.	.
[4c	.	.	.
=52	=52	=52	=52
4c]	.	2dd	-gio u-
4BnX	-go o	.	.
4.c	scu-	2cc	-sber-
16B-iL	.	.	.
16AJ	.	.	.
4G	.	4bnX	-go o
4A	.	4.cc	scu-
2G	.	.	.
.	.	16bnXL	.
.	.	16aJ	.
.	.	4bnX	.
=53	=53	=53	=53
2C	-do,	1cc	-do,
2r	.	.	.
1r	.	1r	.
=54	=54	=54	=54
1r	.	0r	.
2r	.	.	.
2F	S'el-	.	.
=55	=55	=55	=55
4D	-la	1r	.
4.G	Me-	.	.
8G	-di-	.	.
4E	-ca	.	.
2F	fia,	2a	S'el-
4r	.	4f	-la
4G	fia	[4b-y	Me-
=56	=56	=56	=56
4G	tu	8b-]	.
.	.	8b-y	-di-
4C	Guer-	4g	-ca
8FL	-re-	2a	fia,
8GJ	.	.	.
8AL	.	.	.
8B-yJ	.	.	.
2c	.	4g	fia
.	.	2cc	tu
2F	-ro,	.	.
.	.	4cc	Guer-
=57	=57	=57	=57
1r	.	2ff	-re-
.	.	4ee	-ro,
.	.	4ee	Guer-
2r	.	4.gg	-re-
.	.	8ff	.
2c	S'el-	8eeL	.
.	.	8ddJ	.
.	.	[4cc	.
=58	=58	=58	=58
4A	-la	4cc]	.
4.d	Me-	4a	-ro,
.	.	2r	.
8d	-di-	.	.
4B-y	-ca	.	.
2c	fia,	2r	.
2F	fia	4r	.
.	.	4cc	fia
=59	=59	=59	=59
4B-y	tu	4dd	tu
4c	Guer-	4ee	Guer-
2F	-re-	2ff	-re-
2F	-ro,	1cc	-ro,
2r	.	.	.
=60	=60	=60	=60
1r	.	1r	.
2r	.	2r	.
4r	.	[2cc	S'el-
[4F	S'el-	.	.
=61	=61	=61	=61
4F]	.	4cc]	.
4D	-la	4ff	-la
4G	Me-	4dd	Me-
8G	-di-	8dd	-di-
8G	-ca	8dd	-ca
4E	fia,	4ee	fia,
4F	fia	4cc	fia
4BB-y	tu	4dd	tu
4BB-y	Guer-	4dd	Guer-
=62	=62	=62	=62
1C	-re-	1cc	-re-
1F;l	-ro.	1cc;l	-ro.
==	==	==	==
*-	*-	*-	*-
!!!system-decoration: [*]
!!!RDF**kern: i = editorial accidental
!!!RDF**kern: l = terminal long
!!!ENC: Emiliano Ricciardi
!!!END: 2019/08/08
!!!EED: Ricciardi, Emiliano
!!!EEV: 2019/08/08
!!!YEC: Copyright 2018 Emiliano Ricciardi, All Rights Reserved
!!!ONB: Translated from MusicXML on 2019/08/08 and edited by Craig Stuart Sapp
!!@@BEGIN:	VERSEDATA
!!@SOLERTI:	571
!!@CATALOGNUM:	Trm0571
!!@LAST_MODIFIED: 2020/07/12
!!@TITLE:		Se da sì nobil mano
!!@GENRE:		madrigale
!!@MANUSRC:	A<sub>3</sub>, Amz, E<sub>1</sub>, P<sub>4</sub>, V<sub>10</sub>, V<sub>13/E1</sub>, W
!!@PRINTSRC:	8, 9, 11, 12, 13, 15, 20, 24, 29, 33, 67
!!@@BEGIN:	VERSES
!!@ABOUTIT:	Sopra le fascie che per il suo cauterio gli mandò la signora duchessa Lavinia de la Rovere.
!!@ABOUTEN:	About the bands that for his healing lady Duchess Lavinia de la Rovere sent to him.
!!@EDITOR:	Solerti, Angelo
!!@EDITION_TITLE: Le Rime di Torquato Tasso
!!@EDITION_LOC:	Bologna
!!@EDITION_PUB:	Romagnoli-Dall’Acqua
!!@EDITION_DATE:  1898-1902
!!@EDITION_VOL:	3
!!@EDITION_PAGE:  101
!!@TRANSLATOR:	Emiliano Ricciardi and Amyrose McCue Gill
!!@VERSE:
!!	Se da sì nobil mano
!!	Debbon venir le fascie a le mie piaghe,
!!	Amor, ché non m'impiaghe
!!	Il sen con mille colpi?
!!	Né fia ch'io te n'incolpi,
!!	Perché nulla ferita
!!	Sarebbe al cor sì grave,
!!	Come f&ocirc;ra soave
!!	De la man bella cortese aita.
!!	Amor, pace non chero,
!!	Non cheggio usbergo o scudo,
!!	Ma contra il petto ignudo,
!!	S'ella medica fia, sia tu guerriero.
!!@TVERSE:
!!	If from such a noble hand
!!	Must come bandages for my wounds,
!!	Love, why do you not scourge
!!	My breast with a thousand blows?
!!	Nor would it be that I blame you for that,
!!	Because no injury
!!	Could be to the heart so grave,
!!	As aid would be pleasing [to receive]
!!	From the beautiful gracious hand.
!!	Love, peace I do not demand,
!!	I do not demand shelter or shield,
!!	But against the naked chest,
!!	If she be doctor, be you warrior.
!!@@END:		VERSES
!!@OTHER_CRIT_ED:   None
!!@ATTRIBUTION_ABOUT:	Secure
!!		<br>
!!		Among other sources (see Literary Sources), this poem appears in the authoritative manuscript It. 385, Biblioteca Estense Universitaria, Modena.
!!@DATING:	1578
!!@DEDICATEE:	Della Rovere, Lavinia
!!@DEDICATEE_INFO:	(1521-1601)
!!@COMMENTARY:
!!@@END:		VERSEDATA
!!@@BEGIN:	SETTING
!!@CATALOGNUM:	Trm0571c
!!@RIMETITLE:	Se da sì nobil mano
!!@SOLERTI:	571
!!@COMPOSER:	Il Verso, Antonio
!!@PRINCEPSTITLE:	Madrigali a cinque voci. Libro quarto
!!@PRINCEPSLOC:	Venetia
!!@NORMLOC:	Venice
!!@NORMPUB:	Amadino
!!@NORMPUBSHORT:	Amadino
!!@PRINCEPSPUB:	Amadino
!!@PRINCEPSYEAR:	1600
!!@PRINCEPSRISM:	I 8
!!@REPRINTS:	
!!@OVOICES:	5
!!@EXTANTVOICES:	2
!!@PARTBOOKS:	
!!@EXTPARTBOOKS:	
!!@OCLEFS:	G2,F3
!!@OMENSURATION:	C
!!@OKEYSIG:	b-
!!@FINAL:	F
!!@TIMPEDITOR:	Ricciardi, Emiliano
!!@NOTE:		
!!@@END:		SETTING
